public/svgs/logos/moyora-logo.svg

<svg width="122" height="61" viewBox="0 0 122 61" fill="none" xmlns="http://www.w3.org/2000/svg">
<path d="M58.5758 19.835L55.2235 16.4827H59.963V10.5015H55.2235L58.5716 7.14911L54.3458 2.92333L50.9934 6.27569V1.53613H45.0165V6.27569L41.6642 2.92333L37.4341 7.14911L40.7864 10.5015H36.0469V16.4827H40.7864L37.4341 19.835L41.6642 24.0608L45.0165 20.7084V25.4523H50.9934V20.7084L54.3458 24.0608L58.5758 19.835Z" fill="#FF6D3A"/>
<path d="M80.3544 16.5597L85.9503 13.4942C85.9503 13.4942 80.4229 10.4629 80.3544 10.4287C80.3758 10.3559 82.1441 4.3062 82.1441 4.3062L76.0216 6.09585C75.9874 6.03163 72.9561 0.5 72.9561 0.5L69.8906 6.09585C69.8178 6.07444 63.7681 4.3062 63.7681 4.3062L65.5578 10.4287C65.4935 10.4629 59.9619 13.4942 59.9619 13.4942L65.5578 16.5597L63.7681 22.6822C63.7681 22.6822 69.8178 20.9139 69.8906 20.8925L72.9561 26.4883C72.9561 26.4883 75.9874 20.961 76.0216 20.8925L82.1441 22.6822C82.1441 22.6822 80.3758 16.6325 80.3544 16.5597Z" fill="#4181F0"/>
<path d="M0.519531 35.201H5.40893V37.2347C6.37226 35.8433 7.9778 34.8071 10.1528 34.8071C12.7559 34.8071 14.614 36.0188 15.6844 38.091C16.789 35.8775 19.1823 34.8071 21.216 34.8071C25.4632 34.8071 27.8908 37.8769 27.8908 42.6936V53.0418H23.0014V43.5156C23.0014 40.8739 22.1451 39.2684 20.2185 39.2684C18.112 39.2684 16.652 40.9082 16.652 44.3333V53.0418H11.7626V43.5156C11.7626 40.8739 10.9063 39.2684 8.97966 39.2684C6.8732 39.2684 5.41322 40.9082 5.41322 44.3333V53.0418H0.523817V35.201H0.519531Z" fill="black"/>
<path d="M52.9758 60.5L56.722 52.0441L49.2295 35.2009H54.5813L59.3637 46.7608L64.1075 35.2009H69.4936L58.289 60.5H52.9715H52.9758Z" fill="black"/>
<path d="M90.266 35.2009H95.1554V38.0566C95.7634 36.3098 97.583 34.9868 99.5781 34.9868C100.079 34.9868 100.614 35.0211 101.218 35.2009V40.1588C100.469 39.9105 99.7922 39.7649 99.0044 39.7649C96.6839 39.7649 95.1511 41.5845 95.1511 44.513V53.0417H90.2617V35.2009H90.266Z" fill="black"/>
<path d="M49.1751 44.1234C49.1751 49.2654 45.0049 53.4356 39.8629 53.4356C34.7209 53.4356 30.5508 49.2654 30.5508 44.1234C30.5508 38.9814 34.7209 34.8113 39.8629 34.8113C45.0049 34.8113 49.1751 38.9814 49.1751 44.1234ZM39.8629 39.3796C37.2427 39.3796 35.1191 41.5032 35.1191 44.1234C35.1191 46.7437 37.2427 48.8673 39.8629 48.8673C42.4832 48.8673 44.6068 46.7437 44.6068 44.1234C44.6068 41.5032 42.4832 39.3796 39.8629 39.3796Z" fill="black"/>
<path d="M88.0906 44.1234C88.0906 49.2654 83.9205 53.4356 78.7784 53.4356C73.6364 53.4356 69.4663 49.2654 69.4663 44.1234C69.4663 38.9814 73.6364 34.8113 78.7784 34.8113C83.9205 34.8113 88.0906 38.9814 88.0906 44.1234ZM78.7784 39.3796C76.1582 39.3796 74.0346 41.5032 74.0346 44.1234C74.0346 46.7437 76.1582 48.8673 78.7784 48.8673C81.3987 48.8673 83.5223 46.7437 83.5223 44.1234C83.5223 41.5032 81.3987 39.3796 78.7784 39.3796Z" fill="black"/>
<path d="M121.481 35.201V53.0418H116.591V51.7103C115.071 52.7935 113.209 53.4314 111.201 53.4314C106.059 53.4314 101.889 49.2613 101.889 44.1193C101.889 38.9773 106.059 34.8071 111.201 34.8071C113.213 34.8071 115.071 35.4451 116.591 36.5283V35.1968H121.481V35.201ZM111.847 39.3754C109.227 39.3754 107.103 41.499 107.103 44.1193C107.103 46.7395 109.227 48.8631 111.847 48.8631C114.468 48.8631 116.591 46.7395 116.591 44.1193C116.591 41.499 114.468 39.3754 111.847 39.3754Z" fill="black"/>
</svg>

<svg width="122" height="61" fill="none" xmlns="http://www.w3.org/2000/svg"><path d="m58.576 19.835-3.352-3.352h4.739V10.5h-4.74l3.349-3.352-4.226-4.226-3.353 3.353v-4.74h-5.977v4.74l-3.352-3.353-4.23 4.226 3.352 3.353h-4.74v5.98h4.74l-3.352 3.353 4.23 4.226 3.352-3.353v4.744h5.977v-4.744l3.353 3.353 4.23-4.226Z" fill="#FF6D3A"/><path d="m80.354 16.56 5.596-3.066s-5.527-3.031-5.596-3.065l1.79-6.123-6.122 1.79L72.956.5l-3.065 5.596-6.123-1.79 1.79 6.123c-.065.034-5.596 3.065-5.596 3.065l5.596 3.066-1.79 6.122 6.123-1.79 3.065 5.596s3.031-5.527 3.066-5.596l6.122 1.79-1.79-6.122Z" fill="#4181F0"/><path d="M.52 35.201h4.889v2.034c.963-1.392 2.569-2.428 4.744-2.428 2.603 0 4.461 1.212 5.531 3.284 1.105-2.214 3.498-3.284 5.532-3.284 4.247 0 6.675 3.07 6.675 7.887v10.348H23v-9.526c0-2.642-.856-4.248-2.783-4.248-2.106 0-3.566 1.64-3.566 5.065v8.709h-4.89v-9.526c0-2.642-.856-4.248-2.782-4.248-2.107 0-3.567 1.64-3.567 5.065v8.709H.523V35.2H.52ZM52.976 60.5l3.746-8.456-7.492-16.843h5.351l4.783 11.56 4.744-11.56h5.386L58.289 60.5h-5.318.005Zm37.29-25.3h4.89v2.857c.607-1.747 2.427-3.07 4.422-3.07.501 0 1.036.034 1.64.214v4.958c-.749-.248-1.426-.394-2.214-.394-2.32 0-3.853 1.82-3.853 4.748v8.529h-4.89V35.2h.005Zm-41.091 8.923c0 5.142-4.17 9.313-9.312 9.313a9.313 9.313 0 1 1 9.312-9.313Zm-9.312-4.743a4.743 4.743 0 1 0 0 9.487 4.743 4.743 0 0 0 0-9.487Zm48.227 4.743c0 5.142-4.17 9.313-9.312 9.313a9.313 9.313 0 1 1 9.313-9.313Zm-9.312-4.743a4.743 4.743 0 1 0 0 9.487 4.743 4.743 0 0 0 0-9.487Zm42.703-4.179v17.84h-4.89v-1.33a9.26 9.26 0 0 1-5.39 1.72 9.313 9.313 0 0 1 0-18.624 9.25 9.25 0 0 1 5.39 1.721v-1.331h4.89v.004Zm-9.634 4.174a4.744 4.744 0 1 0 0 9.488 4.744 4.744 0 0 0 0-9.488Z" fill="#000"/></svg>
